packages/bezier-icons/icons/ghost.svg

<svg width="24" height="24" viewBox="0 0 24 24" fill="none" xmlns="http://www.w3.org/2000/svg">
<path fill-rule="evenodd" clip-rule="evenodd" d="M17.964 18.4552C17.964 18.6482 17.841 18.7302 17.738 18.7652C17.637 18.8022 17.488 18.8092 17.367 18.6542C16.915 18.0792 16.231 17.7492 15.491 17.7492H15.49C14.751 17.7492 14.068 18.0792 13.616 18.6542L12.9 19.5652C12.466 20.1192 11.534 20.1172 11.1 19.5662L10.385 18.6542C9.93201 18.0792 9.24901 17.7492 8.50901 17.7492H8.50801C7.76901 17.7492 7.08601 18.0792 6.63301 18.6542C6.51301 18.8092 6.36401 18.8012 6.26101 18.7652C6.15801 18.7302 6.03601 18.6482 6.03601 18.4552V9.85918C6.03601 6.62918 8.71101 4.00018 12 4.00018C15.289 4.00018 17.964 6.62918 17.964 9.85918V18.4552ZM12 2.00018C7.589 2.00018 4 5.52518 4 9.85918V18.4552C4 19.4672 4.63 20.3312 5.604 20.6582C6.581 20.9822 7.616 20.6782 8.245 19.8772C8.419 19.6542 8.599 19.6552 8.773 19.8762L9.488 20.7882C10.094 21.5592 11.01 22.0002 12.001 22.0002C12.991 22.0002 13.906 21.5582 14.511 20.7882L15.227 19.8772C15.401 19.6542 15.581 19.6552 15.755 19.8762C16.383 20.6772 17.421 20.9812 18.395 20.6582C19.37 20.3322 20 19.4672 20 18.4552V9.85918C20 5.52518 16.411 2.00018 12 2.00018ZM9.09643 8.07629C8.33243 8.07629 8.01343 8.61829 8.01343 9.94429C8.01343 11.2713 8.33243 11.8133 9.09643 11.8133C9.86043 11.8133 10.1794 11.2713 10.1794 9.94429C10.1794 8.61829 9.86043 8.07629 9.09643 8.07629ZM13.8205 9.94429C13.8205 8.61829 14.1395 8.07629 14.9035 8.07629C15.6675 8.07629 15.9865 8.61829 15.9865 9.94429C15.9865 11.2713 15.6675 11.8133 14.9035 11.8133C14.1395 11.8133 13.8205 11.2713 13.8205 9.94429Z" fill="#313234"/>
</svg>

<svg xmlns="http://www.w3.org/2000/svg" width="24" height="24" fill="none" viewBox="0 0 24 24"><path fill="#313234" fill-rule="evenodd" d="M17.964 18.455c0 .193-.123.275-.226.31a.31.31 0 0 1-.371-.11 2.37 2.37 0 0 0-1.876-.906h-.001c-.739 0-1.422.33-1.874.905l-.716.911c-.434.554-1.366.552-1.8.001l-.715-.912a2.37 2.37 0 0 0-1.876-.905h-.001a2.37 2.37 0 0 0-1.875.905.31.31 0 0 1-.372.111c-.103-.035-.225-.117-.225-.31V9.86C6.036 6.63 8.711 4 12 4s5.964 2.63 5.964 5.86zM12 2C7.589 2 4 5.525 4 9.86v8.595c0 1.012.63 1.876 1.604 2.203.977.324 2.012.02 2.641-.78.174-.224.354-.223.528-.002l.715.912A3.17 3.17 0 0 0 12.001 22a3.17 3.17 0 0 0 2.51-1.212l.716-.91c.174-.224.354-.223.528-.002a2.37 2.37 0 0 0 2.64.782c.975-.326 1.605-1.19 1.605-2.203V9.86C20 5.525 16.411 2 12 2M9.096 8.076c-.764 0-1.083.542-1.083 1.868s.32 1.87 1.083 1.87c.764 0 1.083-.543 1.083-1.87S9.86 8.076 9.096 8.076m4.724 1.868c0-1.326.32-1.868 1.083-1.868.765 0 1.083.542 1.083 1.868s-.319 1.87-1.083 1.87-1.083-.543-1.083-1.87" clip-rule="evenodd"/></svg>
